X:1
T:Polka de l'ours
Z:Roger Ngaret (Septembre 99)
R:
C:Trad.
S:
A:
M:2/4
L:1/8
K:C
"Am"Ac Ac | "G"BG GG | "Am"Ac Ac | "G"d3 "D"c/d/ |
"Am"ee "G"dd | "F"cc "G"B2 | "Am"Ac "G"BG | "Am"A4 ::
eA A/B/c/d/ | eA A>B | "F"cc "G"Bc | dB "D"cd |
"Am"eA eA | eA A>B | "F"cc "G"BG | "Am"A4 ::
e/f/e/d/ c/d/c/B/ | A/B/c/d/ ec | 
"G"gd BG |1 gd BG :|2 "D"AA A2 |]
